svgs/duotone/send-back.svg

<svg xmlns="http://www.w3.org/2000/svg" viewBox="0 0 640 512"><!--! Font Awesome Pro 6.4.2 by @fontawesome - https://fontawesome.com License - https://fontawesome.com/license (Commercial License) Copyright 2023 Fonticons, Inc. --><path class="fa-primary" style="fill:var(--fa-primary-color,inherit);opacity:var(--fa-primary-opacity,1);" d="M160 352V256h32c35.3 0 64-28.7 64-64V96H416c35.3 0 64 28.7 64 64v96H448c-35.3 0-64 28.7-64 64v96H224c-35.3 0-64-28.7-64-64z"/><path class="fa-secondary" style="fill:var(--fa-secondary-color,inherit);opacity:var(--fa-secondary-opacity,.4);" d="M64 64V192H192V64H64zM0 64C0 28.7 28.7 0 64 0H192c35.3 0 64 28.7 64 64V192c0 35.3-28.7 64-64 64H64c-35.3 0-64-28.7-64-64V64zM448 320V448H576V320H448zm-64 0c0-35.3 28.7-64 64-64H576c35.3 0 64 28.7 64 64V448c0 35.3-28.7 64-64 64H448c-35.3 0-64-28.7-64-64V320z"/></svg>

<svg xmlns="http://www.w3.org/2000/svg" viewBox="0 0 640 512"><!--! Font Awesome Pro 6.1.1 by @fontawesome - https://fontawesome.com License - https://fontawesome.com/license (Commercial License) Copyright 2022 Fonticons, Inc. --><defs><style>.fa-secondary{opacity:.4}</style></defs><path class="fa-primary" d="M160 352V288H192C245 288 288 245 288 192V96H416C451.3 96 480 124.7 480 160V224H448C394.1 224 352 266.1 352 320V416H224C188.7 416 160 387.3 160 352z"/><path class="fa-secondary" d="M0 64C0 28.65 28.65 0 64 0H192C227.3 0 256 28.65 256 64V192C256 227.3 227.3 256 192 256H64C28.65 256 0 227.3 0 192V64zM64 192H192V64H64V192zM384 320C384 284.7 412.7 256 448 256H576C611.3 256 640 284.7 640 320V448C640 483.3 611.3 512 576 512H448C412.7 512 384 483.3 384 448V320zM448 448H576V320H448V448z"/></svg>
